X:1
T:Title
%%score { ( 1 3 ) | ( 2 4 ) }
L:1/8
M:4/4
K:Eb
V:1 treble nm="Grand Piano"
V:3 treble 
V:2 bass 
V:4 bass 
V:1
 z4 z2[Q:1/4=100] B2 | B2 B2 A2 G2 | [B,CG]3 [CF] [CF]2 [DB]2 | B2 B2 A2 G2 |[M:3/4] G4 z2 | %5
[M:1/4] [B,DF]2 |[M:4/4] G3 A B2 c2 | B3 A G2 [A,CF]2 | [G,B,E]2 [G,E]2 [B,DG]2 [A,DF]2 | %9
[M:3/4] [G,E]6 |[M:1/4] [EB]2 |[M:4/4] [Ge]2 [Gd]2 [_Gc]2 [Fd]2 | [Ee]3 [FB] [EB]2 [EG]2 | %13
 [EA]2 [EB]2 [Ec]2 [CEA]2 |[M:3/4] G4 z2 |[M:1/4] [B,FA]2 |[M:4/4] G2 _G2 =G2 A2 | z4 [Cc]2 [Ec]2 | %18
 [EB]2 [EG]2 [DG]3 [A,DF] |[M:7/4] [G,E]6 z2 z2 z4 |[M:4/4] [A,CE]8 | [G,B,E]8 |] %22
V:2
 z4 z2 [E,G,E]2 | [E,G,E]2 [E,G,E]2 [E,CE]2 [E,B,E]2 | A,,3 [A,,A,] [A,,A,]2 [B,,F,]2 | %3
 [E,G,E]2 [E,G,E]2 [E,CE]2 [E,B,E]2 |[M:3/4] z2 z2 F2 |[M:1/4] B,,2 | %6
[M:4/4] [E,B,E]3 [F,B,E] [G,B,E]2 [A,E]2 | [G,B,E]3 [F,B,D] [E,B,E]2 A,,2 | B,,2 B,,2 B,,2 B,,2 | %9
[M:3/4] E,6 |[M:1/4] [E,G,]2 |[M:4/4] [E,B,]2 [E,B,]2 [E,=A,]2 [E,_A,]2 | %12
 [E,G,]3 [E,A,] [E,G,]2 [_D,B,]2 | [C,A,]2 [B,,G,]2 [A,,A,]2 A,,2 |[M:3/4] z2 z2 F2 |[M:1/4] C,2 | %16
[M:4/4] [E,B,E]2 [E,=A,E]2 [E,B,E]2 [E,F,D]2 | [E,G,_D]3 [E,G,D] .[A,,A,]2 .[=A,,F,]2 | %18
 [B,,G,]2 [B,,B,]2 [B,,B,]3 B,, |[M:7/4] E,6 z2 z2 z4 |[M:4/4] A,,8 | E,8 |] %22
V:3
 x8 | x8 | x8 | x8 |[M:3/4] [B,D]6 |[M:1/4] x2 |[M:4/4] x8 | x8 | x8 |[M:3/4] x6 |[M:1/4] x2 | %11
[M:4/4] x8 | x8 | x8 |[M:3/4] [B,D]6 |[M:1/4] x2 |[M:4/4] x8 | B3 B z E, z _G, | x8 |[M:7/4] x14 | %20
[M:4/4] x8 | x8 |] %22
V:4
 x8 | x8 | x8 | x8 |[M:3/4] B,,6 |[M:1/4] x2 |[M:4/4] x8 | x8 | x8 |[M:3/4] x6 |[M:1/4] x2 | %11
[M:4/4] x8 | x8 | x8 |[M:3/4] B,,6 |[M:1/4] x2 |[M:4/4] x8 | x8 | x8 |[M:7/4] x14 |[M:4/4] x8 | %21
 x8 |] %22

